elements/app-hax/lib/assets/images/HAXLogo.svg

<svg xmlns="http://www.w3.org/2000/svg" fill="none" width="410" height="410" viewBox="0 0 410 410"><path d="M157.727 11.07v145.386H11.89V11.07h145.837l-23.452 23.534H35.26v99.015h99.425l-.41-99.015M48.011 332.059h34.153l-.205-175.603H48.421l-.41 175.603Zm206.681 0H82.164v32.513h172.528v-32.513Zm0 69.331 23.042-23.37h99.63v-99.589h23.206V401.39H254.692Z" fill="#000"/><path d="M400.57 278.431V255.84H254.692v145.55l23.206-23.206v-99.753h120.704M279.661 133.742V255.84h-23.247v-99.097h-98.687v-23.001h121.934Z" fill="#000"/><path d="M157.727 156.743v99.097h96.965v22.591H134.644V154.078h22.468l.615 2.665ZM331.977 48.38h-174.25v33.456h174.25V48.38Zm31.98 34.112h-31.98v173.307h31.98V82.492Z" fill="#000"/><path d="M181.712 191.142h-9.471v49.897h19.721v-19.475h29.971v19.475h19.106v-49.364h-18.86v19.967h-30.217v-20.5h9.676v-9.922h10.906v9.676h9.553v6.314l9.225-5.535v-10.004H221.4v-10.455h-29.52v10.086h-10.086l-.082 9.84ZM48.421 117.096H68.06V86.838h30.545v30.258h19.639V47.437H98.4V77.9H68.06V47.437H48.421v69.659Zm253.831 226.648h-9.594v19.516h19.762v-19.516h9.84v-10.086h10.619v9.963h9.717v19.639h20.008v-19.639h-9.963v-9.963h-10.537v-9.676h10.537v-10.783h8.979v-19.024h-18.901v19.844h-9.84v10.086h-10.742v-10.086h-9.84v-19.844h-18.901v18.901h8.979v11.48h9.922v9.348h-9.799l-.246 9.84Z" fill="#000"/></svg>

<svg width="410" height="410" viewBox="0 0 410 410" fill="none" xmlns="http://www.w3.org/2000/svg">
<path d="M157.727 11.07V156.456H48.421H11.89V11.07H157.727L134.275 34.604H35.26V133.619H134.685L134.275 34.604" fill="black"/>
<path d="M48.011 332.059H82.164L81.959 156.456H48.421L48.011 332.059Z" fill="black"/>
<path d="M254.692 332.059H82.164V364.572H254.692V332.059Z" fill="black"/>
<path d="M254.692 401.39L277.734 378.02H377.364V278.431H400.57V401.39H254.692Z" fill="black"/>
<path d="M400.57 278.431V255.84H278.923H254.692V401.39L277.898 378.184V278.431H398.602" fill="black"/>
<path d="M279.661 133.742V255.84H256.414V156.743H157.727V133.742H279.661Z" fill="black"/>
<path d="M157.727 156.743V255.84H254.692V278.431H134.644V156.743V154.078H157.112L157.727 156.743Z" fill="black"/>
<path d="M331.977 48.38H157.727V81.836H331.977V48.38Z" fill="black"/>
<path d="M363.957 82.492H331.977V255.799H363.957V82.492Z" fill="black"/>
<path d="M181.712 191.142H172.241V241.039H191.962V221.564H221.933V241.039H241.039V192.577V191.675H222.179V205V206.23V207.583V208.936V210.617V211.642H191.962V191.142H201.638V181.22H212.544V190.896H222.097V197.21L231.322 191.675V181.671H221.4V171.216H191.88V181.302H181.794L181.712 191.142Z" fill="black"/>
<path d="M48.421 117.096H68.06V86.838H98.605V117.096H118.244V47.437H98.4V77.9H68.06V47.437H48.421V117.096Z" fill="black"/>
<path d="M302.252 343.744H292.658V363.26H312.42V343.744H322.26V333.658H332.879V343.621H342.596V363.26H362.604V343.621H352.641V333.658H342.104V323.982H352.641V313.199H361.62V294.175H342.719V312.707V314.019H332.879V324.105H322.137V314.019H312.297V294.175H293.396V313.076H302.375V322.301V324.556H312.297V333.904H302.498L302.252 343.744Z" fill="black"/>
</svg>
